!!!!SEGMENT: pl-wumfc--n18053--001-001_noskowski-zygmunt--livia-quintilla-wstep.krn
!!!cenid: 18xx:4217
!!!COM: Noskowski, Zygmunt
!!!COM-rismID: pe106604
!!!CDT: 1846/05/02-1909/07/23
!!!CNT: Polish
!!!OPR: Livia Quintilla
!!!OTL: Wstęp
!!!OMV: 001
!!!PDT: 1898
!!!AGN: Secular; Opera
!!!YEC: Copyright 2022 Narodowy Instytut Fryderyka Chopina (https://polishscores.org)
!!!YEM: License CC-BY-4.0 (https://creativecommons.org/licenses/by/4.0)
!!!SMS-siglum: PL-Wumfc
!!!SMS-shelfmark: N18053
!!!SMS-variant:
!!!SMS-altvar:
!!!SMS-shelfwork: 001-001 M
!!!NIFC-rismSourceID: 1001161204
!!!NIFC-rismChildID: 1001161204
!!!NIFC-islandoraID: pl-wumfc:1491
!!!URL-pdf-islandora: https://repozytorium.nifc.pl/islandora/object/pl-wumfc:1491/datastream/PDF/view
!!!URL-scan: https://polish.musicsources.pl/pl/lokalizacje/galeria/druki-muzyczne/11843/6 @EN{Scan on Polish Music Sources Website} @PL{Skany w portalu Dziedzictwo Muzyki Polskiej w otwartym dostępie}
!!!IIIF:
!!!ONB-nifc: Skany 0006-0007
!!!AIN: 2 piano
!!!key: b-
**kern	**kern	**dynam
*part2	*part1	*
*staff2	*staff1	*
*I"PIANO.	*I"PIANO.	*
*I'pf	*I'pf	*
*ICklav	*ICklav	*
*Ipiano	*Ipiano	*
*clefF4	*clefG2	*
*k[b-e-a-d-g-]	*k[b-e-a-d-g-]	*
*b-:	*b-:	*
*M3/4	*M3/4	*
=1	=1	=1
!	!LO:TX:a:B:t=Andante maestoso.	!
8.BBB-/L 8.BB-	8.b-\L 8.dd- 8.ff 8.bb-	ff
16DD-/Jk 16D-	16an\Jk 16dd- 16ff 16aan	.
4..DD-/ 4..D-	4..a\ 4..dd- 4..ff 4..aa	.
16GG-/ 16G-	16b-\ 16dd- 16gg- 16bb-	.
=2	=2	=2
8.GG-/L 8.G-	8.b-\L 8.dd- 8.gg- 8.bb-	.
16EEn/Jk 16En	16cc\Jk 16gg- 16bb- 16ccc	.
4..EE/ 4..E	4..cc\ 4..gg- 4..bb- 4..ccc	.
16FF/ 16F	16dd-\ 16ff 16bb- 16ddd-	.
=3	=3	=3
8.BBB-/L 8.BB-	8.dd-\L 8.ff 8.bb- 8.ddd-	.
16GG-/Jk 16G-	16b-\Jk 16dd- 16gg- 16bb-	.
8.EEn/L 8.En	8.cc\L 8.gg- 8.bb- 8.ccc	.
16FF/Jk 16F	16b-\Jk 16dd- 16ff 16bb-	.
8.EE-X/L 8.E-X	8.dd-\L 8.gg- 8.bb- 8.ddd-	.
16CC/Jk 16C	16ee-\Jk 16gg- 16bb- 16eee-	.
=4	=4	=4
*	*8va	*
[4BBB-/ [4BB-	[4ff\ [4bb- [4ddd- [4fff	.
16BBB-/LL] 16BB-]	16ff\LL] 16bb-] 16ddd-] 16fff]	.
16CC/ 16C	16een\ 16bb- 16ddd- 16eeen	.
16BBB-/ 16BB-	16ff\ 16bb- 16ddd- 16fff	.
16GGG-/JJ 16GG-	16gg-\JJ 16bb- 16ddd- 16ggg-	.
16BBB-/LL 16BB-	16ff\LL 16bb- 16ddd- 16fff	.
16GGG-/ 16GG-	16gg-\ 16bb- 16ddd- 16ggg-	.
16BBB-/ 16BB-	16ff\ 16bb- 16ddd- 16fff	.
16CC/JJ 16C	16ee\JJ 16bb- 16ddd- 16eee	.
=5	=5	=5
*tremolo	*	*
!LO:TX:t=P:problem: tremolo połączone belką	!	!
32BBB-/LLL	[4ff\ [>4bb- [4ddd- [4fff	.
32BB-/	.	.
32BBB-/	.	.
32BB-/	.	.
32BBB-/	.	.
32BB-/	.	.
32BBB-/	.	.
32BB-/JJJ	.	.
8BBB-/ 8BB-	8ff\] 8bb-] 8ddd-] 8fff]	.
8r	8r	.
*	*X8va	*
8r	4r	ff
*Xtremolo	*	*
!LO:TUP:b	!	!
24BBB-/LL	.	.
24BBB-/	.	.
24BBB-/JJ	.	.
=6	=6	=6
8FF^^/	2.r;	.
8r	.	.
8r	.	.
!LO:TUP:b	!	!
24BBB-/LL	.	.
24BBB-/	.	.
24BBB-/JJ	.	.
8FF^^/	.	.
8r;	.	.
!!LO:LB:g=original	!	!
=7	=7	=7
*^	*	*
4.F/	4rFF	4r	ff
!	!	!LO:TX:b:i:t=marcatissimo	!
.	8FFF^^>\ 8FF	8e-^^/ 8a- 8cc 8ff	.
8An/	8rFF	8r	.
12c/L	4rFF	4r	.
12d-/	.	.	.
12A/J	.	.	.
=8	=8	=8	=8
8c^^/L	4rFF	4r	.
8B-^^/J	.	.	.
2f\	4rFF	4ree	.
.	8BBB-^^>/ 8BB-	8b-^^/ 8dd- 8ff 8bb-	.
.	8rC	8ree	.
*v	*v	*	*
=9	=9	=9
*	*^	*
4r	4raayy	4.e-\	.
8EE-^^/ 8E-	8g-^^/ 8b- 8ee- 8gg-	.	.
8r	8ree	8f\	.
4r	4ree	12e-\L	.
.	.	12B-\	.
.	.	12c\J	.
*	*v	*v	*
=10	=10	=10
*^	*	*
8d->\L	4rEE	4ra	.
8B-/J	.	.	.
2F/	8rFF	8r	.
.	8DD-^^>\ 8D-	8f^^\ 8b- 8dd- 8ff	.
.	8BBB-^^>\ 8BB-	8b-^^\ 8dd- 8ff 8bb-	.
.	8rFF	8r	.
=11	=11	=11	=11
4.E-/	4rFF	4r	.
.	8EE-^^>\ 8E-	8g-^^\ 8b- 8ee- 8gg-	.
8F/	8rFF	8r	.
12G-/L	4rFF	4r	.
12A-X/	.	.	.
12B-/J	.	.	.
*v	*v	*	*
=12	=12	=12
*	*^	*
4r	4ree	4.c\	.
8GG-^^\ 8G-	8cc^^/ 8ee- 8bb- 8ccc	.	.
8r	8ree	8d-\	.
4r	4ree	12e-\L	.
.	.	12f\	.
.	.	12g-\J	.
!!LO:LB:g=original	!	!	!
=13	=13	=13	=13
8r	8ree	(2.g-\	.
*ped	*	*	*
32BB-\LLL	32g-/LLL 32b-	.	.
32B-\	32e-/	.	.
32BB-\	32g-/ 32b-	.	.
32B-\JJJ	32e-/JJJ	.	.
32EE-/LLL	32g-/LLL 32b- 32cc	.	.
32E-/	32c/	.	.
32EE-/	32g-/ 32b- 32cc	.	.
32E-/JJJ	32c/JJJ	.	.
32C\LLL	32g-/LLL 32b- 32ee-	.	.
32c\	32e-/	.	.
32C\	32g-/ 32b- 32ee-	.	.
32c\JJJ	32e-/JJJ	.	.
32BB-\LLL	32g-/LLL 32cc	.	.
32B-\	32e-/	.	.
32BB-\	32g-/ 32cc	.	.
32B-\JJJ	32e-/JJJ	.	.
32EE-/LLL	32b-\LLL 32cc 32gg-	.	.
32E-/	32g-\	.	.
32EE-/	32b-\ 32cc 32gg-	.	.
32E-/JJJ	32g-\JJJ	.	.
=14	=14	=14	=14
8CC^^/ 8C	8b-^^/ 8ee- 8gg- 8bb-	8g-\L)	.
8r	8raa	8dn^^>\J	.
4r	4raa	8f^^>\L	.
.	.	8e-^^>\	.
4r	4raa	8d-X^^>\	.
.	.	8c^^>\J	.
*	*v	*v	*
=15	=15	=15
*^	*	*
8.B-/L	4rFF	4r	.
16G-/Jk	.	.	.
2F/	8.rFF	8.r	.
.	16FF\ 16D- 16F	16f/ 16b- 16dd-	.
.	8FF^^>\ 8D- 8F	8f/ 8b- 8dd- 8ff	.
.	8rFF	8r	.
=16	=16	=16	=16
8.d-/L	4rFF	4r	.
16G-/Jk	.	.	.
2F/	8.rFF	8.r	.
.	16FF\ 16D- 16F	16f\ 16b- 16dd- 16ff	.
.	8FF\ 8D- 8F	8b-\ 8dd- 8ff 8bb-	.
.	8rFF	8r	.
*v	*v	*	*
=17	=17	=17
*	*^	*
4r	4ree	12d-^^>\L	.
.	.	12c^^>\	.
.	.	12d-^^>\J	.
8.r	8.ree	(2e-\	.
16FF/ 16BB- 16C 16E-	16c/ 16e- 16g- 16b- 16cc	.	.
8.FF\L 8.BB- 8.C 8.E-	8.c/L 8.e- 8.g- 8.b- 8.cc	.	.
16F\Jk 16B- 16c 16e-	16g-/Jk 16b- 16cc 16gg-	.	.
!!LO:LB:g=original	!	!	!
=18	=18	=18	=18
8F\ 8B- 8c 8e-	8g-/ 8b- 8cc 8gg-	8e-\L)	.
8rAA	8ra	8E-</J	.
!	!LO:TX:b:i:t=sost.	!	!
4rAA	4ra	8B-</L	.
.	.	8G-</J	.
8rC	8ra	8.d-\L	.
8FF\ 8C 8E- 8An	8e-^^/ 8an 8cc 8ff	.	.
.	.	16c\Jk	.
*	*v	*v	*
=19	=19	=19
8BBB-/L 8BB-	8B-/	.
(8AA-X/J 8A-X	4f\ 4b- 4dd- 4ff	p
8GG-/L 8G-	.	.
8FF/J) 8F	[8f\ [8b- [8dd- [8ff	.
[4AA-\ [4A-	16f\LL] 16b-] 16dd-] 16ff]	.
.	(16g-\ 16gg-	.
.	16a-\ 16aa-	.
.	16b-\JJ) 16bb-	.
=20	=20	=20
8AA-/L] 8A-]	8b-\ 8bb-	.
(8GG-/ 8G-	4c/ 4e- 4b- 4cc	.
8FF/ 8F	.	.
8EE-/J 8E-	[8c/ [8b- [8cc	.
4GG-/) 4G-	16c/LL] 16b-] 16cc]	.
.	(16d-/ 16dd-	.
.	16e-/ 16ee-	.
.	16f/JJ) 16ff	.
=21	=21	=21
*	*^	*
4CC/ 4C	8g-\L 8gg-	2rcyy	.
.	[8g-\J	.	.
4G-\ 4B- 4e-	16g-\LL]	.	.
.	(16ff\	.	.
.	16ee-\	.	.
.	16dd-\JJ	.	.
4FF/ 4F	16cc/LL	4c\ 4e-	.
.	16b-/	.	.
.	16an/	.	.
.	16cc/JJ)	.	.
*	*v	*v	*
=22	=22	=22
8BBB-\L 8BB-	8ee-\	.
(8BB-\J 8B-	4b-\ 4dd- 4bb-	.
8AA-\L 8A-	.	.
8GG-\J 8G-	[8b-\ [8dd- [8bb-	.
8FF/L 8F	16b-\LL] 16dd-] 16bb-]	.
.	(16cc\ 16ccc	.
8DD-/J) 8D-	16dd-\ 16ddd-	.
.	16ee-\JJ) 16eee-	.
=23	=23	=23
(8CC/L 8C	8ee-\ 8eee-	.
8DD-/ 8D-	4g-\ 4ee- 4gg-	.
8CC/ 8C	.	.
8BBB-/ 8BB-	[8g-\ [8ee- [8gg-	.
8AAA-/ 8AA-	16g-\LL] 16ee-] 16gg-]	.
.	(16a-\ 16aa-	.
8EE-/J) 8E-	16b-\ 16bb-	.
.	16cc\JJ) 16ccc	.
!!LO:LB:g=original	!	!
=24	=24	=24
4DD-/ 4D-	8cc\L 8ccc	.
.	[8d-\J [8f [8dd-	.
8AA-\L 8A-	16d-\LL] 16f] 16dd-]	.
.	(16e-\ 16ee-	.
8GG-\J 8G-	16f\ 16ff	.
.	16g-\JJ 16gg-	.
8FF/L 8F	16a-\LL 16aa-	.
.	16b-\ 16bb-	.
8DD-/J 8D-	16cc\ 16ccc	.
.	16dd-\JJ) 16ddd-	.
=25	=25	=25
4BBB-/ 4BB-	8aa-\L 8ddd- 8aaa-	mf
.	8gg-\ 8ggg-	.
4G-\ 4B- 4d-	8ff\ 8fff	.
.	8ee-\J 8eee-	.
8GG-/L 8G-	8.b-\L 8.dd- 8.bb-	.
8EE-/J 8E-	.	.
.	16dd-\Jk 16ddd-	.
=26	=26	=26
!LO:TX:b:i:t=marcato	!	!
4.AA-^^\ 4.A-	8dd-\L 8gg- 8ddd-	.
.	(8cc\J 8ccc	.
.	[2gg-\) [2ggg-	.
8c^^\	.	.
!LO:TUP:a	!	!
12e-\L	.	.
12f\	.	.
12c\J	.	.
=27	=27	=27
8e-\L	8gg-\L] 8ggg-]	.
8d-\J	(8ff\ 8fff	.
4a-\	8dd-\ 8ff 8ddd-	.
.	8a-\J 8aa-	.
4r	8f\L 8ff	.
.	8b-\J) 8bb-	.
=28	=28	=28
4AAA-/ 4AA-	(8dd-\L 8gg- 8ddd-	.
.	8cc\J 8ccc	.
4E-\ 4G- 4c	8g-\L 8gg-	.
.	8e-\J 8ee-	.
4AA-/	8c\L 8cc	.
.	8b-\J) 8bb-	.
=29	=29	=29
4.D-\ 4.F	4b-\ 4bb-	.
.	2a-\ 2aa-	.
8A-\	.	.
!LO:TUP:a	!	!
12c\L	.	.
12e-\	.	.
12d-\J	.	.
!!LO:LB:g=original	!	!
=30	=30	=30
*ped	*	*
4EEn/ 4En	8an\ 8aan	pp
.	4cc#X\ 4ccc#X	.
4E\ 4An 4c#X	.	.
.	[8cc#\ [8ccc#	.
4EE/ 4E	16cc#\LL] 16ccc#]	.
.	(16ddn\ 16dddn	.
.	16een\ 16eeen	.
.	16ff#X\JJ) 16fff#X	.
=31	=31	=31
4DDn/ 4Dn	8ff#X\ 8fff#X	.
.	4g#X\ 4gg#X	.
4G#X\ 4Bn 4en	.	.
.	[8g#\ [8gg#	.
4CC#X/ 4C#X	16g#\LL] 16gg#]	<
.	(16an\ 16aan	.
.	16bn\ 16bbn	.
.	16cc#X\JJ) 16ccc#X	[
=32	=32	=32
4CCn/ 4Cn	8dd-X^^\L 8ddd-X	mf
.	[8en\J [8een	.
4Gn\ 4B-X	16e\LL] 16ee]	.
.	(16ccn\ 16cccn	.
.	16b-X\ 16bb-X	.
.	16a-X\JJ 16aa-X	.
4CC/ 4C	16gn\LL 16ggn	.
.	16f\ 16ff	.
.	16e\ 16ee	.
.	16g\JJ) 16gg	.
=33	=33	=33
8FF/ 8F	4b-\ 4bb-	.
4F^^\ 4A- 4c	.	.
.	4a-\ 4aa-	.
[8c\	.	.
*	*	*^
!	!	!LO:HP:a	!
N(16c\LL]	8r	>	.
16dn\JJ	.	.	.
8r	16en/LL	.	p
.	16f/JJN)	]]	.
*	*	*v	*v
=34	=34	=34
*	*^	*
4.AA-/ 4.F	(4f/	8rc	.
.	.	4c\	.
.	4gn/	.	.
8A-\	.	8c\	.
4FF/ 4F	4a-/)	12c\L	.
.	.	12e-X\	.
.	.	12d-\J	.
=35	=35	=35	=35
2EEn/ 2En	8b-/	8d-\L	.
.	4b-/	8c\J	.
.	.	2gn\	.
.	[8b-/	.	.
4CC/ 4C	16b-/LL]	.	.
.	(<16cc/	.	.
.	16ee-X/	.	.
.	16dd-/JJ)	.	.
!!LO:PB:g=original	!	!	!
=36	=36	=36	=36
8FF/	4cc/	4.a-\	.
4C\ 4F 4A- 4c	.	.	.
.	4ff/	.	.
8FF/	.	8b-\	.
4DD-/ 4D-	8.cc/L	12a-\L	.
.	.	12f\	.
.	.	12gn\J	.
.	16bn/Jk	.	.
=37	=37	=37	=37
4FFF/ 4FF	8cc/	8a-\L	.
.	4cc/	8f\J	.
4F\ 4A-	.	4c\	.
.	[8cc/	.	.
4r	16cc/LL]	4rc	.
.	(16ddn/	.	.
.	16een/	.	.
.	16ff/JJ)	.	.
*	*v	*v	*
=38	=38	=38
4.GGn/ 4.Gn	8a-\ 8bn 8ff 8aa-	mf
.	4a-\ 4b 4ff 4aa-	.
8Bn\	8a-\ 8ff [8aa-	.
!LO:TUP:a	!	!
12dn\L	16a-\LL 16ff 16aa-]	.
.	(16gn\ 16ggn	.
12e-\	.	.
.	16f\ 16ff	.
12B\J	.	.
.	16dn\JJ) 16ddn	.
=39	=39	=39
8dn\L	8f\ 8ff	.
8c\J	4gn\ 4cc 4ee-X	.
2gn\	.	.
.	[8cc\ [8ee-	.
.	16cc\LL] 16ee-]	.
.	(16ff\	.
.	16ggn\	.
.	16cc\JJ) 16ccc	.
=40	=40	=40
*^	*	*
4.f/	4Dn\	8cc\ 8ff 8aa- 8ccc	.
.	.	4bn\ 4ff 4ggn 4bbn	.
.	2Gn\	.	.
8gn/	.	[<8b\ [<8ff [>8gg [>8bb	.
12f/L	.	16b\LL] 16ff] 16gg] 16bb]	.
.	.	(16cc\ 16ccc	.
12c/	.	.	.
.	.	16ddn\ 16dddn	.
12dn/J	.	.	.
.	.	16ggn\JJ) 16gggn	.
*v	*v	*	*
=41	=41	=41
8C\L 8e-	8ggn\ 8gggn	.
8c\J	4ee-\ 4eee-	.
2Gn\	.	.
.	[8ee-\ [8eee-	.
.	16ee-\LL] 16eee-]	<
.	(16ddn\ 16dddn	.
.	16cc\ 16ccc	.
.	16bn\JJ) 16bbn	.
!!LO:LB:g=original	!	!
=42	=42	=42
8CC/ 8C	4cc\ 4ccc	.
4C\ 4E- 4A-	.	.
.	4.ee-\ 4.eee-	.
[8C\ [8E- [8c	.	.
16C\LL] 16E-] 16c]	.	.
(16Bn\	.	.
16c\	8ddn\ 8dddn	.
16A-\JJ)	.	.
=43	=43	=43
8EE-/ 8E-	8.cc\L 8.ccc	.
4C\ 4E- 4Gn	.	.
.	16bn\Jk 16bbn	.
.	[4cc\ [4ccc	.
8E-\ 8G 8c	.	.
4E-\ 4G 4c	16cc\LL] 16ccc]	.
.	(16gn\ 16ggn	.
.	16cc\ 16ccc	.
.	16ddn\JJ) 16dddn	.
=44	=44	=44
8CC/ 8C	4ee-\ 4eee-	f
4G-X\ 4B-X 4e-	.	.
.	4.gg-X\ 4.ggg-X	.
8B-\ 8e- 8g-	.	.
8CC/L 8C	.	.
8DDn/J 8Dn	8ff\ 8aa- 8bb-X 8fff	.
=45	=45	=45
8EE-/ 8E-	8.ee-\L 8.gg- 8.bb- 8.eee-	.
4E-\ 4G- 4B-	.	.
.	16ddn\Jk 16dddn	.
.	[4ee-\ [4eee-	.
8G-\ 8B- 8e-	.	.
4G-\ 4B- 4e-	16ee-\LL] 16eee-]	.
.	(16ff\ 16fff	.
.	16gg-\ 16ggg-	.
.	16aan\JJ) 16aaan	.
=46	=46	=46
!	!LO:TX:a:i:t=appassionato	!
8DD-\L 8D-	4.bb-\ 4.bbb-	ff
8F\ 8B- 8d-	.	.
8B-\ 8d- 8f	.	.
8d-\J 8f 8b-	8aa-X\L 8aaa-X	.
4d-\ 4f 4b-	8gg-\ 8ggg-	.
.	8ff\J 8fff	.
=47	=47	=47
4r	8een\L 8eeen	.
.	8ff\J 8fff	.
4D-:\ 4B-: 4f:	8gg-\L 8ggg-	.
.	8ff\J 8fff	.
4r	8dd-\L 8ddd-	.
.	8b-\J 8bb-	.
!!LO:LB:g=original	!	!
=48	=48	=48
8GGGn/L 8GGn	4.ff\ 4.bb- 4.fff	.
8D-/J 8F 8B-	.	.
8F\L 8B- 8d-	.	.
8B-\J 8d- 8f	8ee-X\L 8eee-X	.
4B-\ 4d- 4f	8dd-\ 8ddd-	.
.	8cc\J 8ccc	.
=49	=49	=49
4r	8an\L 8aan	.
.	8b-\ 8bb-	.
4GGn:\ 4D-: 4F: 4B-:	8ee-\ 8eee-	>
.	8dd-\ 8ddd-	.
4r	8cc\ 8ccc	.
.	8b-\J 8bb-	]
*kcancel	*kcancel	*
=50||	=50||	=50||
*k[b-e-a-d-]	*k[b-e-a-d-]	*
*f:	*f:	*
*^	*	*
8rG	2.C\	4dd-\ 4een 4bb- 4ddd-	p
4G/	.	.	.
.	.	4.cc\ 4.ee 4.bb- 4.ccc	.
[8G/	.	.	.
16G/LL]	.	.	.
(<16d-/	.	.	.
16c/	.	8ff\ 8aa- 8fff	.
16A-/JJ)	.	.	.
=51	=51	=51	=51
8A-/	2.C\	4ff\ 4bb- 4fff	.
4G/	.	.	.
.	.	4.een\ 4.bb- 4.eeen	<
[8G/	.	.	.
16G/LL]	.	.	.
(16d-/	.	.	.
16c/	.	8aa-\ 8ccc 8aaa-	.
16A-/JJ)	.	.	.
*v	*v	*	*
=52	=52	=52
8CC/ 8C	4.aa-\ 4.aaa-	f
4G\ 4B- 4en	.	.
4G\ 4B- 4e	(8gg\L 8ggg	.
.	8bb-\ 8bbb-	.
8CC/ 8C	8dd-\J) 8ddd-	.
=53	=53	=53
8CC/ 8C	(8cc\L 8ccc	.
4G\ 4B- 4d- 4f	8b-\J) 8bb-	.
.	(4.gg\ 4.ggg	.
4G\ 4B- 4d- 4f	.	.
8CC/ 8C	8ff\) 8fff	.
!!LO:LB:g=original	!	!
=54	=54	=54
8CC/ 8C	4.een\ 4.eeen	.
4G\ 4B- 4en	.	.
4G\ 4B- 4e	(8g\L 8gg	.
.	8b-\ 8bb-	.
8F\ 8G 8B- 8d-	8dd-\J) 8ddd-	.
=55	=55	=55
4CC/ 4C	8dd-\ 8ddd-	.
.	4cc\ 4ccc	>
4En\ 4G 4B- 4c	.	.
.	(8ee-X\L 8eee-X	.
4r	8dd-\ 8ddd-	.
.	8cc\J) 8ccc	]
=56	=56	=56
2.r	[2.cc\	p
=57	=57	=57
*	*^	*
4B-\ 4c	2cc/]	4en\ 4g	.
4A-\ 4c	.	4dn\ 4f	.
4G\ 4B- 4c	4cc/	4e\ 4b-	.
*	*v	*v	*
=58	=58	=58
8FFF/L 8FF	4r	p
8C/J 8F 8A-	.	.
!	!LO:TX:a:i:t=cantabile	!
8F\L 8A- 8c	(4cc\	.
8A-\J 8c 8f	.	.
4A-\ 4c 4f	4dd-\	.
=59	=59	=59
8FFF/L 8FF	4ee-X\	.
8C/J 8F 8A-	.	.
8F\L 8A- 8c	2ff\)	.
8A-\J 8c 8f	.	.
4A-\ 4c 4f	.	.
=60	=60	=60
8FFF/L 8FF	(8dd-\L	.
8D-/J 8F 8B-	8cc\J	.
8F\L 8B- 8d-	4b-\	.
8B-\J 8d- 8f	.	.
4B-\ 4d- 4f	4cc\	.
=61	=61	=61
8FFF/L 8FF	4dd-\	.
8D-/J 8F 8B-	.	.
8F\L 8B- 8d-	2ff\)	.
8B-\J 8d- 8f	.	.
4B-\ 4d- 4f	.	.
!!LO:LB:g=original	!	!
=62	=62	=62
8FFF/L 8FF	(2g/	.
8C/J 8G	.	.
8G\L 8B-	.	.
8C\J 8G	.	.
4G\ 4B-	4a-/)	.
=63	=63	=63
8FFF/L 8FF	(8b-\L	.
8C/J 8G	8cc\J	.
8G\L 8B-	4dd-\	.
8B-\J 8g	.	.
4B-\ 4g	4ee-\)	.
=64	=64	=64
*	*^	*
8FFF/L 8FF	[2.cc/	8rd	.
8AA-/J 8C 8F	.	4f\	.
8C\L 8F 8A-	.	.	.
8F\J 8A- 8c	.	[>8f\	.
4F\ 4A- 4c	.	16f\LL]	.
.	.	16g\	.
.	.	16a-\	.
.	.	16en\JJ	.
=65	=65	=65	=65
8FFF/L 8FF	2cc/]	8g\	.
8AA-/J 8C 8F	.	4f\	.
8C\L 8F 8A-	.	.	.
8F\J 8A- 8c	.	[>8f\	.
4F\ 4A- 4c	4ree	16f\LL]	.
.	.	(>16g\	.
.	.	16a-\	.
.	.	16bn\JJ)	.
*	*v	*v	*
=66	=66	=66
8AAA-\L 8AA-	8cc\	.
8C\ 8F 8A-	8r	.
8F\ 8A- 8c	(4ddn\	>
8A-\J 8c 8f	.	.
4A-\ 4c 4f	4een\	.
=67	=67	=67
8AAA-\L 8AA-	4ff\	.
8C\ 8F 8A-	.	.
8F\ 8A- 8c	2aa-\)	]
8A-\J 8c 8f	.	.
4A-\ 4c 4f	.	.
=68	=68	=68
8BBB-\L 8BB-	(8gg\L	pp
8D-\ 8F	8ff\J	.
8F\ 8G	4een\	.
8G\J 8d-	.	.
4G\ 4d-	4ff\)	.
!!LO:LB:g=original	!	!
=69	=69	=69
8GGG\L 8GG	(4ff\	.
8BB-\ 8D- 8F	.	.
8D-\ 8F 8B-	4bb-\	.
8F\J 8B- 8d-	.	.
4F\ 4B- 4d-	4dd-\)	.
=70	=70	=70
8CC\L 8C	(2cc\	.
8C\ 8F 8A-	.	.
8F\ 8A- 8c	.	.
8A-\J 8c 8f	.	.
4A-\ 4c 4f	4dd-\	.
=71	=71	=71
8CC\L 8C	8ee-X\L	.
8G\ 8B-	8ff\J	.
8G\ 8B- 8e-	4gg\	.
8B-\J 8e- 8g	.	.
4B-\ 4e- 4g	4ee-\	.
=72	=72	=72
*	*^	*
4FFF/ 4FF	2.ff/)	8rd	.
.	.	4f\	.
4C\ 4F 4A-	.	.	.
.	.	(>8f\	.
4F\ 4A- 4c	.	16f\LL)	.
.	.	(>16g\	.
.	.	16a-\	.
.	.	16cc\JJ)	.
=73	=73	=73	=73
4FFF/ 4FF	(8.ee-/L	8cc\	p
.	.	4b-\	.
.	16ff/Jk	.	.
4E-\ 4G 4B-	4ee-/)	.	.
.	.	[>8b-\	.
4G\ 4B- 4e-	4ee-/	16b-\LL]	.
.	.	(16g\	.
.	.	16a-\	.
.	.	16b-\JJ	.
=74	=74	=74	=74
4FFF/ 4FF	(4ff/	16dd-\LL	.
.	.	16cc\	.
.	.	16a-\	.
.	.	16g\JJ)	.
4C\ 4F 4A-	2cc/)	8f\L	.
.	.	[>8f\J	.
4F\ 4A- 4c	.	16f\LL]	.
.	.	(>16g\	.
.	.	16a-\	.
.	.	16cc\JJ)	.
!!LO:LB:g=original	!	!	!
=75	=75	=75	=75
4FFF/ 4FF	(8.ee-/L	8cc\	.
.	.	4b-\	.
.	16ff/Jk	.	.
4E-\ 4G 4B-	4b-/)	.	.
.	.	[>8g\	.
4G\ 4B-	(4b-/	16g\LL]	.
.	.	16e-\	.
.	.	16f\	.
.	.	16g\JJ	.
=76	=76	=76	=76
4FFF/ 4FF	4cc/	16a-\LL	.
.	.	16g\	.
.	.	16f\	.
.	.	16d-\JJ	.
4C\ 4F 4A-	4f/)	8c\L	.
.	.	[>8c\J	.
4F\ 4A-	4ree	16c\LL]	.
.	.	(>16en\	.
.	.	16f\	.
.	.	16a-\JJ	.
*	*v	*v	*
=77	=77	=77
8EE-X\L 8E-X	8cc\)	.
8F\ 8An	8r	.
8A\ 8c	(4cc\	.
8A\J 8c 8f	.	.
4A\ 4c 4f	4dd-\	.
=78	=78	=78
*	*^	*
8CC\L 8C	4ee-/)	8rd	.
8E-\ 8F	.	4f\	.
8F\ 8An	2ff/	.	.
8A\J 8e-	.	[>8f\	.
4A\ 4e-	.	16f\LL]	.
.	.	(>16g\	.
.	.	16an\	.
.	.	16cc\JJ)	.
=79	=79	=79	=79
8AAAn\L 8AAn	(8.ee-/L	8cc\L	.
8E-\ 8F	.	8f\J	.
.	16dd-/Jk	.	.
8F\ 8c	4cc/	4rc	.
8c\J 8e-	.	.	.
4c\ 4e-	4dd-/	4rc	.
*	*v	*v	*
=80	=80	=80
8GGG-X\L 8GG-X	4ee-\	.
8E-\ 8B-	.	.
8B-\ 8e-	4.gg-X\	.
8E-\J 8B-	.	.
4B-\ 4e-	.	.
.	8ff\)	.
!!LO:PB:g=original	!	!
=81||	=81||	=81||
*k[b-e-a-d-g-]	*k[b-e-a-d-g-]	*
*b-:	*b-:	*
4FFF/ 4FF	8ee-\	mp
.	4cc\	.
4E-\ 4F 4An 4c	.	.
.	[8cc\	.
4E-\ 4F 4A 4c	16cc\LL]	.
.	(16cc\	.
.	16dd-\	.
.	16ee-\JJ)	.
=82	=82	=82
4FFF/ 4FF	8ee-\	.
.	4gg-\	.
4F\ 4An 4e-	.	.
.	[8gg-\	.
4F\ 4A 4e-	16gg-\LL]	.
.	(16an\	.
.	16b-\	.
.	16cc\JJ)	.
=83	=83	=83
4FFF/ 4FF	8f\ 8b- 8ee-	<
.	4f/ 4b- 4dd-	.
4D-\ 4F 4B-	.	.
.	[8f/ [>8b- [>8dd-	.
4F\ 4B- 4d-	16f\LL] 16b-] 16dd-]	.
.	(16ee-\	.
.	16ff\	.
.	16b-\JJ) 16bb-	.
=84	=84	=84
4FFF/ 4FF	8b-\ 8bb-	.
.	4an\ 4ee- 4aan	.
4E-\ 4An 4c	.	.
.	[8a\ [8ee- [8aa	.
4A\ 4c 4f	16a\LL] 16ee-] 16aa]	.
.	(16b-\ 16bb-	.
.	16cc\ 16ccc	.
.	16ee-\JJ) 16eee-	.
=85	=85	=85
4FFF/ 4FF	8ee-\ 8eee-	.
.	4dd-\ 4ddd-	.
4F\ 4B- 4d-	.	.
.	[8dd-\ [8ddd-	.
4B-\ 4d- 4f	16dd-\LL] 16ddd-]	.
.	(16an\ 16aan	.
.	16b-\ 16bb-	.
.	16dd-\JJ) 16ddd-	.
=86	=86	=86
4FFF/ 4FF	8ff\ 8fff	.
.	4ee-\ 4eee-	.
4G-\ 4An 4e-	.	.
.	[8ee-\ [8eee-	.
4A\ 4e- 4g-	16ee-\LL] 16eee-]	.
.	(16cc\ 16ccc	.
.	16dd-\ 16ddd-	.
.	16ee-\JJ) 16eee-	.
!!LO:LB:g=original	!	!
=87	=87	=87
4FFF/ 4FF	8ff\ 8fff	f
.	4ee-\ 4eee-	.
4G-\ 4An 4e-	.	.
.	[8ee-\ [8eee-	.
4A\ 4e- 4g-	16ee-\LL] 16eee-]	.
.	(16ddn\ 16dddn	.
.	16ee-\ 16eee-	.
.	16gg-\JJ) 16ggg-	.
=88	=88	=88
4FFF/ 4FF	8bb-\L 8bbb-	.
.	[8aan\J [8aaan	.
4F\ 4An 4e-	16aa\LL] 16aaa]	.
!	!LO:TX:b:i:t=marcato	!
.	16cc\ 16ccc	.
.	16bb-\ 16bbb-	.
.	16aa\JJ 16aaa	.
4r	16gg-\LL 16ggg-	.
.	16ff\ 16fff	.
.	16ee-\ 16eee-	.
.	16dd-\JJ 16ddd-	.
=89	=89	=89
4FF/ 4C 4E- 4An	16cc\LL 16ccc	.
.	16gg-\ 16ggg-	.
.	16ff\ 16fff	.
.	16ee-\JJ 16eee-	.
4r	16dd-\LL 16ddd-	.
.	16cc\ 16ccc	.
.	16b-\ 16bb-	.
.	16an\JJ 16aan	.
4r	16dd-\LL 16ddd-	.
.	16cc\ 16ccc	.
.	16a\ 16aa	.
.	16g-\JJ 16gg-	.
=90	=90	=90
!	!LO:TX:a:B:t=Grandioso.	!
*ped	*	*
8F^^</L	4.f^^\ 4.ff	ff
8FFF/J 8FF	.	.
8E-\L 8F 8An 8c	.	.
8A^^\J	8an^^\ 8aan	.
!	!LO:TUP:a	!
12c^^\L	12cc^^\L 12ccc	.
12d-^^\	12dd-^^\ 12ddd-	.
12A^^\J	12a^^\J 12aa	.
=91	=91	=91
8c^^\L	8cc^^\L 8ccc	.
8B-^^\J	8b-^^\J 8bb-	.
*	*8va	*
8f^^\L	2ff^^\ 2bb- 2ddd- 2fff	.
8BBB-\J 8BB-	.	.
4F^^\ 4B- 4d- 4f	.	.
*	*X8va	*
!!LO:LB:g=original	!	!
=92	=92	=92
*ped	*	*
8e-^^\L	4.ee-^^\ 4.eee-	.
8BBB-\J 8BB-	.	.
8E-\L 8G- 8B- 8e-	.	.
8f^^\J	8ff^^\ 8fff	.
!LO:TUP:a	!LO:TUP:a	!
12e-\L	12ee-\L 12eee-	.
12B-\	12b-\ 12bb-	.
12c\J	12cc\J 12ccc	.
=93	=93	=93
8d-\L	8dd-\L 8ddd-	.
8B-\J	8b-\J 8bb-	.
8F/L	2f^^\ 2b- 2dd- 2ff	.
8BBB-/J 8BB-	.	.
4F^^\ 4B- 4d-	.	.
=94	=94	=94
8E-/L	4.e-^^/ 4.ee-	.
8GGG-/J 8GG-	.	.
8C^^\L 8E- 8B- 8c	.	.
8F\J	8f\ 8ff	.
!LO:TUP:a	!LO:TUP:a	!
12G-\L	12g-\L 12gg-	.
12A-\	12a-\ 12aa-	.
12B-\J	12b-\J 12bb-	.
=95	=95	=95
8c\L	4.cc\ 4.ccc	.
8EE-\J 8E-	.	.
8E-^^\L 8B- 8c 8g-	.	.
8d-\J	8dd-\ 8ddd-	.
!LO:TUP:a	!LO:TUP:a	!
12e-\L	12ee-\L 12eee-	.
12f\	12ff\ 12fff	.
12g-\J	12gg-\J 12ggg-	.
=96	=96	=96
*ped	*	*
8g-^^\	8gg-^^\ 8ggg-	.
32BB-\LLL	32g-/LLL 32b-	pp
32B-\	32e-/	.
32BB-\	32g-/ 32b-	.
32B-\JJJ	32e-/JJJ	.
32EE-/LLL	32g-/LLL 32b- 32cc	.
32E-/	32c/	.
32EE-/	32g-/ 32b- 32cc	.
32E-/JJJ	32c/JJJ	.
!	!LO:TX:b:i:t=molto cresc.	!
32C\LLL	32g-/LLL 32b- 32ee-	.
32c\	32e-/	.
32C\	32g-/ 32b- 32ee-	.
32c\JJJ	32e-/JJJ	.
32BB-\LLL	32g-/LLL 32cc	<
32B-\	32e-/	.
32BB-\	32g-/ 32cc	.
32B-\JJJ	32e-/JJJ	.
32EE-/LLL	32b-\LLL 32cc 32gg-	.
32E-/	32g-\	.
32EE-/	32b-\ 32cc 32gg-	.
32E-/JJJ	32g-\JJJ	[
!!LO:LB:g=original	!	!
=97	=97	=97
8CC^^/ 8C	8b-^^\ 8ee- 8gg- 8bb-	f
8dn^^\L	8ddn^^\L 8dddn	.
8f^^\	8ff^^\ 8fff	.
8e-^^\	8ee-^^\ 8eee-	.
8d-X^^\	8dd-X^^\ 8ddd-X	.
8c^^\J	8cc^^\J 8ccc	.
=98	=98	=98
8.B-^^\L	8.b-^^\L 8.bb-	.
16G-\Jk	16g-\Jk 16gg-	.
8F\	8g-\ 8gg-	.
16r	16r	.
16FF/ 16BB- 16D- 16F	16f\ 16b- 16dd- 16ff	.
4FF^^/ 4BB- 4D- 4F	4f^^\ 4b- 4dd- 4ff	.
=99	=99	=99
8.d-^^\L	8.dd-^^\L 8.ddd-	.
16G-\Jk	16g-\Jk 16gg-	.
8F\	8f\ 8ff	.
16r	16r	.
16FF/ 16BB- 16D- 16F	16f\ 16b- 16dd- 16ff	.
4FF^^/ 4BB- 4D- 4F	4f^^\ 4b- 4dd- 4ff	.
=100	=100	=100
!LO:TUP:a	!LO:TUP:a	!
12d-\L	12dd-\L 12ddd-	.
12c\	12cc\ 12ccc	.
12d-\J	12dd-\J 12ddd-	.
*ped	*	*
8e-^^\L	8ee-^^\ 8eee-	.
8FFF^^/J 8FF	8e-^^/ 8g- 8b- 8cc	.
8.G-\L 8.B- 8.c 8.e-	8.g-^^\L 8.b- 8.cc 8.ee-	.
16B-\Jk 16c 16e- 16g-	16b-\Jk 16cc 16ee- 16gg-	.
=101	=101	=101
!	!LO:TX:a:i:t=sost.	!
8B-\ 8c 8e- 8g-	8b-\ 8cc 8ee- 8gg-	.
8E-^\L	8e-^^\L 8ee-	.
8d-^\	8dd-^^\ 8ddd-	.
8c^\J	8cc^^\J 8ccc	.
8g-^\	8gg-^^\L 8ggg-	.
8FF^\ 8C 8E- 8A-	8an^^\J 8cc 8ee- 8aan	.
=102	=102	=102
!	!LO:TX:a:i:t=tempo poco più mosso	!
4BBB-/ 4BB-	8b-\ 8dd- 8ff 8bb-	ff
.	4b-^^\ 4bb-	.
4D-\ 4F 4B-	.	.
.	[8b-^^\ [8bb-	.
4F\ 4B- 4d-	16b-\LL] 16bb-]	.
.	16cc\ 16ccc	.
.	16dd-\ 16ddd-	.
.	16ff\JJ 16fff	.
!!LO:LB:g=original	!	!
=103	=103	=103
*	*8va	*
4BBB-/ 4BB-	8bb-\ 8bbb-	.
.	4aan\ 4aaan	.
4G-\ 4An 4e-	.	.
.	[8aa\ [8aaa	.
4A\ 4e- 4g-	16aa\LL] 16aaa]	.
.	16gg-\ 16ggg-	.
*	*X8va	*
.	16ee-\ 16eee-	.
.	16dd-\JJ 16ddd-	.
=104	=104	=104
4BBB-/ 4BB-	8cc\ 8ccc	.
.	4b-\ 4bb-	.
4F\ 4B- 4d-	.	.
.	[8b-\ [8bb-	.
4B-\ 4d- 4f	16b-\LL] 16bb-]	.
.	16cc\ 16ccc	.
.	16dd-\ 16ddd-	.
.	16ff\JJ 16fff	.
=105	=105	=105
*	*8va	*
4BBB-/ 4BB-	16bb-\LL 16bbb-	.
.	16aan\ 16aaan	.
.	16ddd-\ 16dddd-	.
.	16ccc\JJ 16cccc	.
4G-\ 4An 4c 4e-	16bb-\LL 16bbb-	.
.	16aa\ 16aaa	.
.	16gg-\ 16ggg-	.
.	16ff\JJ 16fff	.
*	*X8va	*
4r	16ee-\LL 16eee-	.
.	16dd-\ 16ddd-	.
.	16cc\ 16ccc	.
.	16an\JJ 16aa	.
=106	=106	=106
8.BBB-/L 8.BB-	8.b-^^\L 8.dd- 8.ff 8.bb-	ff
16DD-/Jk 16D-	16an\Jk 16dd- 16ff 16aan	.
!LO:TX:t=P:problem:dźwięk 4.DD- z jedną kropką, dźwięk 4..D- z dwoma kropkami zapisane jako dwudźwięk	!	!
!LO:N:vis=4.	!	!
4..DD-^^/ 4..D-	4..a^^\ 4..dd- 4..ff 4..aa	.
16GG-/ 16G-	16b-\ 16dd- 16gg- 16bb-	.
=107	=107	=107
8.GG-/L 8.G-	8.b-\L 8.dd- 8.gg- 8.bb-	.
16EEn/Jk 16En	16cc\Jk 16gg- 16bb- 16ccc	.
4..EE^^/ 4..E	4..cc^^\ 4..gg- 4..bb- 4..ccc	.
16FF/ 16F	16dd-\ 16ff 16bb- 16ddd-	.
=108	=108	=108
8.BBB-/L 8.BB-	8.dd-\L 8.ff 8.bb- 8.ddd-	.
16GG-/Jk 16G-	16b-\Jk 16dd- 16gg- 16bb-	.
8.EEn/L 8.En	8.cc\L 8.gg- 8.bb- 8.ccc	.
16FF/Jk 16F	16b-\Jk 16dd- 16ff 16bb-	.
8.EE-X/L 8.E-X	8.dd-\L 8.gg- 8.bb- 8.ddd-	.
16CC/Jk 16C	16ee-\Jk 16gg- 16bb- 16eee-	.
!!LO:LB:g=original	!	!
=109	=109	=109
8BBB-^^/ 8BB-	8ff^^\ 8bb- 8ddd- 8fff	.
8FFF/L 8FF	32d-/LLL 32f 32an	p
.	32An/	.
.	32d-/ 32f 32a	.
.	32A/JJJ	.
8BBB-/ 8BB-	32d-/LLL 32g- 32b-	.
.	32B-/	.
.	32d-/ 32g- 32b-	.
.	32B-/JJJ	.
8FFF/ 8FF	32d-/LLL 32f 32a	.
.	32A/	.
.	32d-/ 32f 32a	.
.	32A/JJJ	.
8BBB-/ 8BB-	32d-/LLL 32g- 32b-	.
.	32B-/	.
.	32d-/ 32g- 32b-	.
.	32B-/JJJ	.
8FF/J 8F	32e-/LLL 32a 32cc	.
.	32c/	.
.	32e-/ 32a 32cc	.
.	32c/JJJ	.
=110	=110	=110
8DD-/L 8D-	32f/LLL 32an 32dd-	<
.	32d-/	.
.	32f/ 32a 32dd-	.
.	32d-/JJJ	.
8FF/ 8F	32e-/LLL 32a 32cc	.
.	32c/	.
.	32e-/ 32a 32cc	.
.	32c/JJJ	.
8BB-/ 8B-	32g-/LLL 32b- 32dd-	.
.	32d-/	.
.	32g-/ 32b- 32dd-	.
.	32d-/JJJ	.
8FF/ 8F	32a\LLL 32dd- 32ff	.
.	32f\	.
.	32a\ 32dd- 32ff	.
.	32f\JJJ	.
8DD-/ 8D-	32dd-\LLL 32ff 32aan	.
.	32a\	.
.	32dd-\ 32ff 32aa	.
.	32a\JJJ	.
8GG-/J 8G-	32dd-\LLL 32gg- 32bb-	.
.	32b-\	.
.	32dd-\ 32gg- 32bb-	.
.	32b-\JJJ	.
!!LO:LB:g=original	!	!
=111	=111	=111
8FF/L 8F	32ee-\LLL 32aan 32ccc	mf
.	32cc\	.
.	32ee-\ 32aa 32ccc	.
.	32cc\JJJ	.
8DD-/ 8D-	32ff\LLL 32aa 32ddd-	.
.	32dd-\	.
.	32ff\ 32aa 32ddd-	.
.	32dd-\JJJ	.
8FF/ 8F	32ee-\LLL 32aa 32ccc	.
.	32cc\	.
.	32ee-\ 32aa 32ccc	.
.	32cc\JJJ	.
8BB-/ 8B-	32gg-\LLL 32bb- 32ddd-	<
.	32dd-\	.
.	32gg-\ 32bb- 32ddd-	.
.	32dd-\JJJ	.
*	*8va	*
8FF/ 8F	32aan\LLL 32ddd- 32fff	.
.	32ff\	.
.	32aa\ 32ddd- 32fff	.
.	32ff\JJJ	.
8DD-/J 8D-	32ddd-\LLL 32fff 32aaan	.
.	32aa\	.
.	32ddd-\ 32fff 32aaa	.
.	32aa\JJJ	.
=112	=112	=112
*tremolo	*tremolo	*
32BBB-/LLL 32FF	32ddd-\LLL 32fff 32bbb-	p
32BB-/	32bb-\	.
32BBB-/ 32FF	32ddd-\ 32fff 32bbb-	.
32BB-/	32bb-\	.
32BBB-/ 32FF	32ddd-\ 32fff 32bbb-	.
32BB-/	32bb-\	.
32BBB-/ 32FF	32ddd-\ 32fff 32bbb-	.
32BB-/	32bb-\	.
32BBB-/ 32FF	32ddd-\ 32fff 32bbb-	.
32BB-/	32bb-\	.
32BBB-/ 32FF	32ddd-\ 32fff 32bbb-	.
32BB-/	32bb-\	.
32BBB-/ 32FF	32ddd-\ 32fff 32bbb-	.
32BB-/	32bb-\	.
32BBB-/ 32FF	32ddd-\ 32fff 32bbb-	.
32BB-/	32bb-\	.
32BBB-/ 32FF	32ddd-\ 32fff 32bbb-	.
32BB-/	32bb-\	.
32BBB-/ 32FF	32ddd-\ 32fff 32bbb-	.
32BB-/	32bb-\	.
32BBB-/ 32FF	32ddd-\ 32fff 32bbb-	.
32BB-/	32bb-\	.
32BBB-/ 32FF	32ddd-\ 32fff 32bbb-	.
32BB-/JJJ	32bb-\JJJ	.
=113	=113	=113
!	!	!LO:HP:b:t=molto cresc.
32BBB-/LLL 32FF	32ddd-\LLL 32fff 32bbb-	<
32BB-/	32bb-\	.
32BBB-/ 32FF	32ddd-\ 32fff 32bbb-	.
32BB-/	32bb-\	.
32BBB-/ 32FF	32ddd-\ 32fff 32bbb-	.
32BB-/	32bb-\	.
32BBB-/ 32FF	32ddd-\ 32fff 32bbb-	.
32BB-/	32bb-\	.
32BBB-/ 32FF	32ddd-\ 32fff 32bbb-	.
32BB-/	32bb-\	.
32BBB-/ 32FF	32ddd-\ 32fff 32bbb-	.
32BB-/	32bb-\	.
32BBB-/ 32FF	32ddd-\ 32fff 32bbb-	.
32BB-/	32bb-\	.
32BBB-/ 32FF	32ddd-\ 32fff 32bbb-	.
32BB-/	32bb-\	.
32BBB-/ 32FF	32ddd-\ 32fff 32bbb-	.
32BB-/	32bb-\	.
32BBB-/ 32FF	32ddd-\ 32fff 32bbb-	.
32BB-/	32bb-\	.
32BBB-/ 32FF	32ddd-\ 32fff 32bbb-	.
32BB-/	32bb-\	.
32BBB-/ 32FF	32ddd-\ 32fff 32bbb-	.
32BB-/JJJ	32bb-\JJJ	.
=114	=114	=114
32BBB-/LLL	8bb-^^\ 8ddd- 8fff 8bbb-	f
32BB-/	.	.
32BBB-/	.	.
32BB-/	.	.
*	*X8va	*
32BBB-/	8r	.
32BB-/	.	.
32BBB-/	.	.
32BB-/	.	.
32BBB-/	4r	.
32BB-/	.	.
32BBB-/	.	.
32BB-/	.	.
32BBB-/	.	.
32BB-/	.	.
32BBB-/	.	.
32BB-/	.	.
32BBB-/	8.r	.
32BB-/	.	.
32BBB-/	.	.
32BB-/	.	.
32BBB-/	.	.
32BB-/	.	.
32BBB-/	16B-/ 16d- 16f 16b-	.
32BB-/JJJ	.	.
=115	=115	=115
4..BBB-^^/ 4..FF 4..BB-	4..B-^^/ 4..d- 4..f 4..b-	.
16BBB-/ 16FF 16BB-	16B-/ 16d- 16f 16b-	.
8.BBB-/L 8.FF 8.BB-	8.B-/L 8.d- 8.f 8.b-	.
16BBB-/Jk 16FF 16BB-	16B-/Jk 16d- 16f 16b-	.
=116	=116	=116
4BBB-/ 4FF 4BB-	4B-/ 4d- 4f 4b-	.
8BB-\ 8F 8d-	8b-\ 8dd- 8ff 8bb-	f
8r	8r	.
4r	4r	.
==	==	==
*-	*-	*-
!!!system-decoration: {(s1,s2)}
!!!RDF**kern: > = above
!!!RDF**kern: < = below
!!!RDF**kern: N = linked
!!!ENC: Solarz Mateusz
!!!END: 2022-09-29
!!!ENC: Natalia Wrzos
!!!END: 2022-10-20
